X: 41583
T: Up All Night
R: reel
M: 4/4
K: Dmixolydian
|:AD D/D/D ABcB|AG FG ADB,D|CG, G,/G,/G, CDEG|cdec dcBc|
AD D/D/D ABcB|AGFG ADB,D|CG, G,/G,/G, CDEG|cdec d3c:|
|:Ad d/d/d c3B|Ad d/d/d fded|Ad d/d/d AdAd|ABcB c2cB|
Ad d/d/d c3B|Ad d/d/d fded|ecdB cGAc|GECE DEFG:|

